X: 1
T: Mazurca Di Ivano
M: 3/4
L: 1/8
R: mazurka
K: Amin
c/c/|c2B2A2|ef e4|c2B2A2|a6|a2g2f2|ef/e/ d4|f2e2d2|de/d/ c2-c>c|
c2B2A2|ef e4|c2B2A2|a6|a2g2f2|ef/e/ d3 e/e/|ef ed cB|1A2 A2 z:|2A2 A2 AB||
c3B cd|c3 B Ac|e3d ef|e6|e2 fe d/e/d/c/|dc B4|d2 ed cB|cB A2 AB|
c/d/c/B/ cB cd|c3 B Ac|e3d ef|e6|e2 fe d/e/d/c/|dc B3 e/e/|ef ed cB|A2 A2 z||
